X:522
T: Banjiu Xiaodiao
N: C1158
O: China,Jiangxi, Anyuan
S: Zhongguo Minge Xuan, S. 180]
N: Nachspiel und Glissandi fehlen
R: Tanzlied, Xiaodiao]
M: 2/4
L: 1/16
K: D
d2dBABed | B2BAB4
d2dBABed | B2BAB4
d2d4de | f2f2e4
BBBedeBA | F3EFEFB | A8
dddBABed | B2BAB4
dddBABed | B2BAB4
d2d4de | f2f2e4
d2e2f2a2 | F2A2F2A2
dddBABed | B2BAB4
dddBABed | B2BAB4
d2d4de | f2f2e4
BBBedeBA | F2E2FEFB | A8

